src/assets/icons/badge-pro-dark.svg

<svg width="103" height="34" viewBox="0 0 103 34" fill="none" xmlns="http://www.w3.org/2000/svg">
<path fill-rule="evenodd" clip-rule="evenodd" d="M0.5 17C0.5 7.61116 8.11116 0 17.5 0L85.5 0C94.8888 0 102.5 7.61116 102.5 17C102.5 26.3888 94.8888 34 85.5 34H17.5C8.11116 34 0.5 26.3888 0.5 17Z" fill="#253238"/>
<path fill-rule="evenodd" clip-rule="evenodd" d="M21.8686 6.70305C20.7459 6.96718 19.6922 7.4102 18.7392 8.00039C18.0123 7.70969 17.1641 7.74322 16.4335 8.16501C15.2792 8.83148 14.8175 10.237 15.3009 11.4389C14.7107 12.3922 14.2677 13.4461 14.0036 14.5691C13.2846 14.8777 12.709 15.5009 12.4908 16.3154C12.1459 17.6024 12.8126 18.9222 14.0036 19.4307C14.2677 20.5538 14.7107 21.6079 15.301 22.5612C15.0103 23.2882 15.0438 24.1364 15.4656 24.867C16.132 26.0212 17.5373 26.4829 18.7392 25.9997C19.6923 26.5899 20.746 27.0329 21.8687 27.297C22.2731 28.2396 23.2094 28.8998 24.3 28.8998C25.3905 28.8998 26.3269 28.2396 26.7312 27.297C27.8541 27.0329 28.9079 26.5898 29.8611 25.9995C30.5879 26.29 31.4359 26.2564 32.1663 25.8347C33.3206 25.1683 33.7823 23.7631 33.2991 22.5612C33.8894 21.6078 34.3325 20.5536 34.5965 19.4304C35.3155 19.1218 35.8909 18.4986 36.1091 17.6842C36.454 16.3972 35.7873 15.0775 34.5964 14.569C34.3323 13.4459 33.8892 12.3919 33.299 11.4387C33.5896 10.7118 33.5561 9.86365 33.1343 9.13311C32.4679 7.97888 31.0627 7.51715 29.8608 8.00035C28.9078 7.41016 27.854 6.96714 26.7313 6.70302C26.327 5.76032 25.3906 5.09998 24.3 5.09998C23.2093 5.09998 22.2729 5.76033 21.8686 6.70305ZM18.9709 16.9599C19.3585 16.5724 19.9855 16.5724 20.3731 16.9599L22.3162 18.9032L26.9034 14.3156L28.2256 12.9934C28.6131 12.6058 29.2402 12.6058 29.6277 12.9934C30.0153 13.381 30.0153 14.0081 29.6277 14.3957L23.0173 21.0066C22.8291 21.1948 22.5771 21.2971 22.3162 21.2971C22.0553 21.2971 21.8033 21.1948 21.6151 21.0066L18.9709 18.3622C18.5834 17.9746 18.5834 17.3475 18.9709 16.9599Z" fill="white"/>
<path fill-rule="evenodd" clip-rule="evenodd" d="M88.0359 23.0932C89.6639 21.4887 90.4779 19.4577 90.4779 17C90.4779 14.5423 89.6639 12.5113 88.0359 10.9068C86.4079 9.30225 84.3416 8.5 81.837 8.5C79.3324 8.5 77.2661 9.30225 75.6381 10.9068C74.0101 12.5113 73.1961 14.5423 73.1961 17C73.1961 19.4577 74.0101 21.4887 75.6381 23.0932C77.2661 24.6978 79.3324 25.5 81.837 25.5C84.3416 25.5 86.4079 24.6978 88.0359 23.0932ZM54.0594 18.3266C55.1082 17.3482 55.6326 16.0294 55.6326 14.3701C55.6326 12.7108 55.1043 11.3881 54.0477 10.4019C52.991 9.41568 51.5861 8.92259 49.8329 8.92259H43V25.0773H46.1464V19.7941H49.8329C51.6018 19.7941 53.0106 19.305 54.0594 18.3266ZM46.1464 16.8591V11.8577H49.5276C50.4512 11.8577 51.1556 12.0729 51.6409 12.5034C52.1262 12.9339 52.3688 13.5561 52.3688 14.3701C52.3688 15.1685 52.1262 15.7829 51.6409 16.2134C51.1556 16.6439 50.4512 16.8591 49.5276 16.8591H46.1464ZM70.1202 25.1477C69.3062 25.1477 68.594 24.9677 67.9835 24.6077C67.373 24.2476 66.7625 23.6293 66.152 22.7527L63.9448 19.5828H61.1741V25.0773H58.0277V8.92259H64.7901C66.5277 8.92259 67.9522 9.4196 69.0636 10.4136C70.175 11.4076 70.7307 12.703 70.7307 14.2997C70.7307 15.4581 70.4411 16.4599 69.8619 17.3052C69.2827 18.1505 68.4609 18.7766 67.3965 19.1836L68.8288 21.2265C69.0792 21.5865 69.3453 21.8448 69.6271 22.0013C69.9089 22.1579 70.3002 22.2361 70.8011 22.2361C70.8481 22.2361 70.8951 22.2322 70.942 22.2244C70.989 22.2166 71.036 22.2126 71.0829 22.2126V25.0773C70.9733 25.1086 70.8364 25.1282 70.672 25.136C70.5076 25.1438 70.3237 25.1477 70.1202 25.1477ZM61.1741 16.7182V11.8577H64.6962C65.6041 11.8577 66.289 12.0651 66.7507 12.4799C67.2125 12.8948 67.4434 13.5013 67.4434 14.2997C67.4434 15.098 67.2125 15.7007 66.7507 16.1077C66.289 16.5147 65.6041 16.7182 64.6962 16.7182H61.1741ZM87.1906 17C87.1906 15.3407 86.7014 13.9984 85.723 12.9731C84.7446 11.9478 83.4493 11.4351 81.837 11.4351C80.2246 11.4351 78.9293 11.9478 77.9509 12.9731C76.9725 13.9984 76.4834 15.3407 76.4834 17C76.4834 18.6593 76.9725 20.0016 77.9509 21.027C78.9293 22.0523 80.2246 22.5649 81.837 22.5649C83.4493 22.5649 84.7446 22.0523 85.723 21.027C86.7014 20.0016 87.1906 18.6593 87.1906 17Z" fill="white"/>
</svg>

<svg width="103" height="34" fill="none" xmlns="http://www.w3.org/2000/svg"><path fill-rule="evenodd" clip-rule="evenodd" d="M.5 17c0-9.389 7.611-17 17-17h68c9.389 0 17 7.611 17 17s-7.611 17-17 17h-68c-9.389 0-17-7.611-17-17z" fill="#253238"/><path fill-rule="evenodd" clip-rule="evenodd" d="M21.869 6.703A10.515 10.515 0 0018.739 8a2.645 2.645 0 00-3.438 3.439 10.518 10.518 0 00-1.297 3.13 2.645 2.645 0 000 4.862 10.516 10.516 0 001.297 3.13A2.645 2.645 0 0018.739 26c.953.59 2.007 1.033 3.13 1.297a2.645 2.645 0 004.862 0A10.514 10.514 0 0029.861 26a2.645 2.645 0 003.438-3.438 10.516 10.516 0 001.297-3.132 2.645 2.645 0 000-4.861 10.517 10.517 0 00-1.297-3.13A2.645 2.645 0 0029.861 8a10.515 10.515 0 00-3.13-1.298 2.645 2.645 0 00-4.862 0zM18.97 16.96a.991.991 0 011.402 0l1.943 1.943 4.587-4.587 1.323-1.323a.99.99 0 111.402 1.403l-6.61 6.61a.99.99 0 01-1.403 0l-2.644-2.644a.991.991 0 010-1.402zM88.036 23.093c1.628-1.604 2.442-3.635 2.442-6.093s-.814-4.489-2.442-6.093C86.408 9.302 84.342 8.5 81.837 8.5s-4.57.802-6.199 2.407C74.01 12.51 73.196 14.542 73.196 17s.814 4.489 2.442 6.093c1.628 1.605 3.694 2.407 6.199 2.407s4.57-.802 6.199-2.407zm-33.977-4.766c1.05-.979 1.574-2.298 1.574-3.957 0-1.66-.529-2.982-1.585-3.968-1.057-.986-2.462-1.48-4.215-1.48H43v16.155h3.146v-5.283h3.687c1.769 0 3.178-.489 4.226-1.467zm-7.913-1.468v-5.001h3.382c.923 0 1.628.215 2.113.645.485.43.728 1.053.728 1.867 0 .799-.243 1.413-.728 1.843-.485.43-1.19.646-2.113.646h-3.382zm23.974 8.289c-.814 0-1.526-.18-2.136-.54-.611-.36-1.221-.979-1.832-1.855l-2.207-3.17h-2.77v5.494h-3.147V8.923h6.762c1.738 0 3.162.497 4.274 1.49 1.111.995 1.667 2.29 1.667 3.887 0 1.158-.29 2.16-.87 3.005-.578.846-1.4 1.472-2.465 1.879l1.433 2.043c.25.36.516.618.798.774.282.157.673.235 1.174.235a.858.858 0 00.141-.012.86.86 0 01.14-.011v2.864c-.109.032-.246.051-.41.059-.164.008-.348.012-.552.012zm-8.946-8.43v-4.86h3.522c.908 0 1.593.207 2.055.622.462.415.692 1.021.692 1.82 0 .798-.23 1.4-.692 1.808-.462.407-1.147.61-2.055.61h-3.522zM87.191 17c0-1.66-.49-3.002-1.468-4.027-.978-1.025-2.274-1.538-3.886-1.538s-2.908.513-3.886 1.538c-.978 1.025-1.468 2.368-1.468 4.027 0 1.66.49 3.002 1.468 4.027.978 1.025 2.274 1.538 3.886 1.538s2.908-.513 3.886-1.538c.978-1.025 1.468-2.368 1.468-4.027z" fill="#fff"/></svg>
